X: 2742
T:Handel's Clarinet. HSJJ.189
M:4/4
L:1/8
Q:100
S:HSJ Jackson,Wyresdale,Lancs.1823
R:Air
O:England
A:Lancashire
H:1823
Z:Chris Partington
K:C
g2"as written"e/f/g/a/d2cA|cdc"sic" ded e2 f/-g/|aaag/f/ gggf/e/|fffe/d/
 eeed|!c/d/e/f/ gf/e/|azfz|gzGzc4:|
|:g|eGce d/c/d/e/ dg|egced2g2|!(g8-|g6g2|a-gg-f f-ee-f|g-ff-e e-d~d2|c/d
/e/f/ gf/e/azf|gzGzc4:|]
